X:8
T:Héloïse et Abailard
T:Loiza hag Abalard
R:
A:Bretagne
S:http://students.washington.edu/jjcrump/courses/honor252/heloise.html
B:1923 edition of Villemarqué's book Barzaz-Breiz : Chants Populaires de la Bretagne. 
O:France
Z:  Eric Forgeot - http://anamnese.online.fr
M:3/4
L:1/4
Q:1/4=130
K:G
(d/e/) | d2 (d/c/) || [M:2/4] B e || [M:3/4] ed 
(d/e/) | d2 (d/c/) || [M:2/4] B e || [M:3/4] (ed/)z/ 
(d/e/) | d2 (d/c/) || [M:2/4] B e || [M:3/4] (ed/)Hz/
     d | d2 d ||[M:2/4] d d || [M:3/4] BGA | B2B | B2 A/ > G/ A-| A Hz 
     d | d2 d ||[M:2/4] d d || [M:3/4] BGA | (Bc)B | B2 A |(AG2) ||
%%multicol start
%%rightmargin 11.5cm
%%begintext
W:Je n'avais que douze ans quand je quittai la maison de mon père,
W:quand je suivis mon clerc, mon bien cher Abailard.
W:
W:Quand j'allai à Nantes, avec mon doux clerc, 
W:je ne savais, mon Dieu, d'autre langue que le breton;
W:
W:Je ne savais, mon Dieu, que dire mon Pater, 
W:quand j'étais chez mon père, petite, à la maison.
W:
W:Mais maintenant je suis instruite, fort instruite en tout point; 
W:je connais la langue des Franks et le latin, je sais et écrire,
W:
W:Et mème lire dans le livre des Évangiles, et bien écrir parler, 
W:et consacrer l'hostie aussi bien que tout prêtre.
W:
W:Et empêcher le prêtre de dire sa messe, 
W:et nouer l'aiguilette par le milieu et les deux bouts;
W:
W:Je sais trouver l'or pur, l'or au milieu de la cendre,
W:et l'argent dans le sable, quand j'en ai le moyen:
W:
W:Je me change en chienne noire, ou en corbeau, 
W:quand je le veux, ou en feu follet, ou en dragon;
W:
W:Je sais une chanson qui fait fendre les cieux, 
W:et tressaillir la grande mer, et trembler la terre.
W:
W:Je sais, moi, tout ce qu'il y a à savoir en ce monde; 
W:tout ce qui a été jadis, et tout ce qui sera.
W:
W:La première drogue que je fis avec mon doux clerc, 
W:fut faite l'oeil gauche d'un corbeau, et le coeur d'un crapaud;
W:
W:Et avec la graine de la fougère verte, cueillie à cent brasses 
W:au fond du puits, et avec la racine de l'Herbe d'or arrachée dans la prairie,
W:
W:Arrachée tête nue, au lever du soleil, 
W:en chemise et nupieds.
W:
W:La première épreuve que je fis de mes drogues, 
W:fut faite dans le champ de seigle du seigneur abbé:
W:
W:De dix-huit mesures de seigle qu'avait semées l'abbé, 
W:il ne recueillit que deux poignées.
W:
W:J'ai un coffret d'argent à la maison, chez mon père: 
W:qui l'ouvrirait s'en repentirait bien!
W:
W:Il y a là trois vipères qui couvent un oeuf de dragon; 
W:si mon dragon vient à bien, il y aura désolation.
W:
W:Si mon dragon vient à bien, il y aura grande désolation; 
W:il jettera des flammes à sept lieues à la ronde.
W:
W:Ce n'est pas avec de la chair de perdrix, ni avec de la chair de bécasse, 
W:mais avec le sang sacré des Innocents, que je nourris mes vipères.
W:
W:Le premier que je tuai était dans le cimetière,
W:sur le point de recevoir le baptême, et le prêtre en surplis.
W:
W:Quaud on l'eut porté au carrefour, je quittai ma chaussure, 
W:et m'en allai le déterrer, sans bruit, sur mes bas.
W:
W:Si je reste sur terre, et ma Lumière avec moi; 
W:si nous restons en ce monde encore un an ou deux;
W:
W:Encore deux ou trois ans, mon doux ami et moi, 
W:nous ferons tourner ce monde à rebours.
W:
W:-Prenez bien garde, jeune Loïza, prenez garde à votre âme; 
W:si ce monde est a vous, l'autre appartient à Dieu.-
W:
%%endtext
%%multicol new
%%leftmargin 11.5cm
%%begintext
W:LOIZA HAG ABALARD 
W:(- IES KERNE -)
W:
W:Ne oann nemed dauzek vloa pa guitiz ti ma zad,
W:Pa oann oet gand ma c'loarek, ma Abalardik mad.
W:
W:Pa oann-me occ da naonet gand ma dousik kloarek
W:Ne ouienn ies, ma Doue, nemed ar brezonek;
W:
W:Ne ouienn tra, ma Doue, met laret ma feter;
W:Pa oann-me plac'hik biban e ti ma zad er ger,
W:
W:Hogen breman, disket onn, disket onn mad a-grenne;
W:Me oar Galleg ha Latin, me oar skriva ha lenn;
W:
W:la lenn e levr ann Aviel ha skriva mad ha preek,
W:Ha sakri ar bara-kann kerkouls ha peb belek;
W:
W:Ha miret ouz ar belek da lar he oferen,
W:Ha skloumo ann alc'houilten e kreiz hag enn daoubenn.
W:
W:Me oar kaout ann aour melen, ann aour touez al ladu;
W:Hag ann argant touez ann drez, pa'm euz kavet an tu:
W:
W:Me oar mont da giez du, pe da vran, p'am euz c'hoant;
W:Pe da botrik ar skod-tan, pe da aerouant;
W:
W:Me oar eur zon hag a lak ann nenvou da frailla
W:Hag ar mor braz da zridal. hag aon douar da grena.
W:
W:Me oar me kement tra zo er bed-man da c'houiet,
W:Kement tra zo bet gwechall, kement zo da zonet.
W:
W:Kentan louzou am euz gret gant ma dousik kloarek,
W:Oe gand lagad klei eur vran ha kalon eunn tousek;
W:
W:Ha gand had ar raden glaz, don ar puns hat goured,
W:Ha grouiou ann aour-ieoten war ar prad dastumet;
W:
W:Dastumet, diskbel-kaer, d'ar goulou-de a-grenn,
W:Nemed ma iviz gen-in, hag ouspenn dierc'henn.
W:
W:Kenta 'toliz ma louzcu da c'hout hag hen oa mad,
W:A oe e-kreiz park segal ann otrouann Abad,
W:
W:Deuz triouec'h bigouad segal doa hadet ann Abad,
W:N'en deuz bet da zastumi nemed diou guichennad.
W:
W:Me'm euz eunn arc'hig argant er ger e ti ma zad,
W:Ann hini hen digorfe en defe kalonad'
W:
W:Hag enn han teir aer-wiber o c'houri ui aerouant,
W:Mar deu ma aerouant da vad, neuze vo nec'hamant.
W:
W:Mar deu ma aerouant da vad, a vo gwall nec'hamant;
W:Seiz leo war-dro ac'hannen e teui da deureul tan.
W:
W:Ne ket gand kik klujiri na kik keveleged,
W:Gand goad sakr ar re zinam eo int gan-in maget.
W:
W:Ar c'hentan em boa lahet oa ebarz ar vered,
W:O vonet d'ar vadiant, hag ar beleg gwisket.
W:
W:Tre ma oa oet d'ar c'hroaz-hent, e tonnez ma boutou,
W:Hag a iez d'he ziveia, didrouz, war ma lerou.
W:
W:Mar jommann war ann douar, ha gen-in ma Goulaou,
W:Mar jommomp war ar bed-man, c'hoaz eur bloavez pe zaoug
W:
W:C'hoaz eunn daou pe dri bloavez, ma dous ha me hon daou,
W:Ni a lakai ar bed-man da drei war he c'hinaou.
W:
W:-- Evesait mad, Loizaik, evesait d'hoc'h ene,
W:Mar d-eo ar bed-man d'hoc'h-hu, da Zoue egile.--
%%endtext
%%multicol end
  

